public/flags/ME.svg

<svg fill="none" height="53" viewBox="0 0 61 53" width="61" xmlns="http://www.w3.org/2000/svg" xmlns:xlink="http://www.w3.org/1999/xlink"><mask id="a" height="43" maskUnits="userSpaceOnUse" width="59" x="1" y="3"><rect fill="#fff" height="42.5" rx="4.24286" width="59" x="1" y="3"/></mask><rect fill="#fff" height="42.5" rx="4.24286" width="59" x="1" y="3"/><g mask="url(#a)"><path d="m1 3h59v42.5h-59z" fill="#e6be53"/><g clip-rule="evenodd" fill-rule="evenodd"><path d="m3.80957 40.5452c0 1.1716.9498 2.1214 2.12143 2.1214h49.1381c1.1716 0 2.1214-.9498 2.1214-2.1214v-32.59046c0-1.17163-.9498-2.12143-2.1214-2.12143h-49.1381c-1.17163 0-2.12143.9498-2.12143 2.12143z" fill="#e01826"/><path d="m28.4385 10.7763c-.9926.3337-1.2909 1.5928-.5536 2.3364l.7954.8021c.2656.2679.6271.4185 1.0043.4185h1.6309c.3771 0 .7387-.1506 1.0042-.4185l.7955-.8021c.7373-.7436.4389-2.0027-.5537-2.3364l-1.6108-.5415c-.2924-.0983-.6089-.0983-.9013 0zm3.0658 6.7942c-.5533.558-1.4553.558-2.0086 0l-.4004-.4039-2.0861-2.1037c-.4314-.435-1.0939-.5428-1.641-.267l-.1539.0776c-.8579.4326-1.044 1.5764-.3675 2.2587l.0342.0344 2.0975 2.1153c.4258.4295.5315 1.0822.2628 1.624l-.8762 1.7674c-.0522.1052-.0794.2211-.0794.3386 0 .5678-.5985.9363-1.1055.6806l-.6686-.3371c-.511-.2577-.6219-.9391-.2189-1.3455.3257-.3285.3257-.8581 0-1.1865l-.6553-.6609c-.1068-.1077-.1955-.2318-.2629-.3676l-1.2345-2.4901c-.0456-.0918-.081-.1884-.1057-.2879l-.6471-2.6103c-.2875-1.1598-1.7945-1.4625-2.5076-.5037l-2.1478 2.888c-.1814.244-.2794.5399-.2794.844v4.867c0 .218.0504.433.1472.6283l1.1559 2.3314c.0673.1358.1561.2599.2628.3676l2.4864 2.5074c.1073.1082.2314.1983.3674.267l2.4698 1.2453c.0883.0445.1858.0677.2847.0677.6663 0 .8797.8973.2848 1.1972l-.3305.1667c-.0693.035-.1326.0809-.1872.136l-.6199.6251c-.3869.3903-1.0178.3903-1.4047 0-.387-.3902-1.0179-.3902-1.4048 0l-.1196.1206c-.3486.3515-.435.8858-.2151 1.3293l.6474 1.3057c.2387.4815.7296.7861 1.267.7861h1.5958c.2212 0 .4393-.0519.6368-.1515l2.0882-1.0529c.2732-.1378.4944-.3605.6303-.6346l.635-1.2807c.2748-.5542 1.0132-.6737 1.4487-.2344.3009.3033.3476.7762.112 1.1326l-1.6312 2.4675c-.4284.648-.2539 1.5202.3907 1.9536l2.2606 1.5199c.4772.3208 1.101.3208 1.5782 0l2.2606-1.5199c.6447-.4334.8191-1.3056.3907-1.9536l-1.6312-2.4675c-.2356-.3564-.1888-.8293.112-1.1326.4356-.4393 1.174-.3198 1.4488.2344l.6349 1.2807c.1359.2741.3571.4968.6303.6346l2.0883 1.0529c.1974.0996.4155.1515.6367.1515h1.5958c.5374 0 1.0284-.3046 1.2671-.7861l.6474-1.3057c.2198-.4435.1334-.9778-.2152-1.3293l-.1196-.1206c-.3869-.3902-1.0178-.3902-1.4047 0-.387.3903-1.0178.3903-1.4048 0l-.6198-.6251c-.0547-.0551-.1179-.101-.1873-.136l-.3305-.1667c-.5949-.2999-.3815-1.1972.2848-1.1972.0989 0 .1964-.0232.2847-.0677l2.4698-1.2453c.1361-.0687.2602-.1588.3675-.267l2.4863-2.5074c.1068-.1077.1955-.2318.2628-.3676l1.1559-2.3314c.0969-.1953.1472-.4103.1472-.6283v-4.867c0-.3041-.098-.6-.2794-.844l-2.1478-2.888c-.7131-.9588-2.2201-.6561-2.5076.5037l-.6471 2.6103c-.0247.0995-.0601.1961-.1056.2879l-1.2346 2.4901c-.0673.1358-.1561.2599-.2628.3676l-.6554.6609c-.3257.3284-.3257.858 0 1.1865.403.4064.2922 1.0878-.2189 1.3455l-.6686.3371c-.507.2557-1.1055-.1128-1.1055-.6806 0-.1175-.0272-.2334-.0793-.3386l-.8763-1.7674c-.2686-.5418-.163-1.1945.2629-1.624l2.0975-2.1153.0341-.0344c.6765-.6823.4904-1.8261-.3675-2.2587l-.1539-.0776c-.5471-.2758-1.2096-.168-1.641.267l-2.086 2.1037z" fill="#e6be53"/><path d="m27.6904 27.0834c0 .5181.874.6895 1.1249.2363.4895-.8839 1.0871-1.653 1.6847-1.653.5975 0 1.1951.7691 1.6846 1.653.251.4532 1.1249.2818 1.1249-.2363 0-2.3472-1.2579-4.25-2.8095-4.25-1.5517 0-2.8096 1.9028-2.8096 4.25z" fill="#215f90"/></g></g></svg>

<svg width="61" height="53" viewBox="0 0 61 53" fill="none" xmlns="http://www.w3.org/2000/svg">
<rect x="1" y="3" width="59" height="42.5" rx="4.24286" fill="white"/>
<mask id="mask0" mask-type="alpha" maskUnits="userSpaceOnUse" x="1" y="3" width="59" height="43">
<rect x="1" y="3" width="59" height="42.5" rx="4.24286" fill="white"/>
</mask>
<g mask="url(#mask0)">
<rect x="1" y="3" width="59" height="42.5" fill="#E6BE53"/>
<path fill-rule="evenodd" clip-rule="evenodd" d="M3.80957 40.5452C3.80957 41.7168 4.75937 42.6666 5.931 42.6666H55.0691C56.2407 42.6666 57.1905 41.7168 57.1905 40.5452V7.95474C57.1905 6.78311 56.2407 5.83331 55.0691 5.83331H5.931C4.75937 5.83331 3.80957 6.78311 3.80957 7.95474V40.5452Z" fill="#E01826"/>
<path fill-rule="evenodd" clip-rule="evenodd" d="M28.4385 10.7763C27.4459 11.11 27.1476 12.3691 27.8849 13.1127L28.6803 13.9148C28.9459 14.1827 29.3074 14.3333 29.6846 14.3333H31.3155C31.6926 14.3333 32.0542 14.1827 32.3197 13.9148L33.1152 13.1127C33.8525 12.3691 33.5541 11.11 32.5615 10.7763L30.9507 10.2348C30.6583 10.1365 30.3418 10.1365 30.0494 10.2348L28.4385 10.7763ZM31.5043 17.5705C30.951 18.1285 30.049 18.1285 29.4957 17.5705L29.0953 17.1666L27.0092 15.0629C26.5778 14.6279 25.9153 14.5201 25.3682 14.7959L25.2143 14.8735C24.3564 15.3061 24.1703 16.4499 24.8468 17.1322L24.881 17.1666L26.9785 19.2819C27.4043 19.7114 27.51 20.3641 27.2413 20.9059L26.3651 22.6733C26.3129 22.7785 26.2857 22.8944 26.2857 23.0119C26.2857 23.5797 25.6872 23.9482 25.1802 23.6925L24.5116 23.3554C24.0006 23.0977 23.8897 22.4163 24.2927 22.0099C24.6184 21.6814 24.6184 21.1518 24.2927 20.8234L23.6374 20.1625C23.5306 20.0548 23.4419 19.9307 23.3745 19.7949L22.14 17.3048C22.0944 17.213 22.059 17.1164 22.0343 17.0169L21.3872 14.4066C21.0997 13.2468 19.5927 12.9441 18.8796 13.9029L16.7318 16.7909C16.5504 17.0349 16.4524 17.3308 16.4524 17.6349V22.5019C16.4524 22.7199 16.5028 22.9349 16.5996 23.1302L17.7555 25.4616C17.8228 25.5974 17.9116 25.7215 18.0183 25.8292L20.5047 28.3366C20.612 28.4448 20.7361 28.5349 20.8721 28.6036L23.3419 29.8489C23.4302 29.8934 23.5277 29.9166 23.6266 29.9166C24.2929 29.9166 24.5063 30.8139 23.9114 31.1138L23.5809 31.2805C23.5116 31.3155 23.4483 31.3614 23.3937 31.4165L22.7738 32.0416C22.3869 32.4319 21.756 32.4319 21.3691 32.0416C20.9821 31.6514 20.3512 31.6514 19.9643 32.0416L19.8447 32.1622C19.4961 32.5137 19.4097 33.048 19.6296 33.4915L20.277 34.7972C20.5157 35.2787 21.0066 35.5833 21.544 35.5833H23.1398C23.361 35.5833 23.5791 35.5314 23.7766 35.4318L25.8648 34.3789C26.138 34.2411 26.3592 34.0184 26.4951 33.7443L27.1301 32.4636C27.4049 31.9094 28.1433 31.7899 28.5788 32.2292C28.8797 32.5325 28.9264 33.0054 28.6908 33.3618L27.0596 35.8293C26.6312 36.4773 26.8057 37.3495 27.4503 37.7829L29.7109 39.3028C30.1881 39.6236 30.8119 39.6236 31.2891 39.3028L33.5497 37.7829C34.1944 37.3495 34.3688 36.4773 33.9404 35.8293L32.3092 33.3618C32.0736 33.0054 32.1204 32.5325 32.4212 32.2292C32.8568 31.7899 33.5952 31.9094 33.87 32.4636L34.5049 33.7443C34.6408 34.0184 34.862 34.2411 35.1352 34.3789L37.2235 35.4318C37.4209 35.5314 37.639 35.5833 37.8602 35.5833H39.456C39.9934 35.5833 40.4844 35.2787 40.7231 34.7972L41.3705 33.4915C41.5903 33.048 41.5039 32.5137 41.1553 32.1622L41.0357 32.0416C40.6488 31.6514 40.0179 31.6514 39.631 32.0416C39.244 32.4319 38.6132 32.4319 38.2262 32.0416L37.6064 31.4165C37.5517 31.3614 37.4885 31.3155 37.4191 31.2805L37.0886 31.1138C36.4937 30.8139 36.7071 29.9166 37.3734 29.9166C37.4723 29.9166 37.5698 29.8934 37.6581 29.8489L40.1279 28.6036C40.264 28.5349 40.3881 28.4448 40.4954 28.3366L42.9817 25.8292C43.0885 25.7215 43.1772 25.5974 43.2445 25.4616L44.4004 23.1302C44.4973 22.9349 44.5476 22.7199 44.5476 22.5019V17.6349C44.5476 17.3308 44.4496 17.0349 44.2682 16.7909L42.1204 13.9029C41.4073 12.9441 39.9003 13.2468 39.6128 14.4066L38.9657 17.0169C38.941 17.1164 38.9056 17.213 38.8601 17.3048L37.6255 19.7949C37.5582 19.9307 37.4694 20.0548 37.3627 20.1625L36.7073 20.8234C36.3816 21.1518 36.3816 21.6814 36.7073 22.0099C37.1103 22.4163 36.9995 23.0977 36.4884 23.3554L35.8198 23.6925C35.3128 23.9482 34.7143 23.5797 34.7143 23.0119C34.7143 22.8944 34.6871 22.7785 34.635 22.6733L33.7587 20.9059C33.4901 20.3641 33.5957 19.7114 34.0216 19.2819L36.1191 17.1666L36.1532 17.1322C36.8297 16.4499 36.6436 15.3061 35.7857 14.8735L35.6318 14.7959C35.0847 14.5201 34.4222 14.6279 33.9908 15.0629L31.9048 17.1666L31.5043 17.5705Z" fill="#E6BE53"/>
<path fill-rule="evenodd" clip-rule="evenodd" d="M27.6904 27.0834C27.6904 27.6015 28.5644 27.7729 28.8153 27.3197C29.3048 26.4358 29.9024 25.6667 30.5 25.6667C31.0975 25.6667 31.6951 26.4358 32.1846 27.3197C32.4356 27.7729 33.3095 27.6015 33.3095 27.0834V27.0834C33.3095 24.7362 32.0516 22.8334 30.5 22.8334C28.9483 22.8334 27.6904 24.7362 27.6904 27.0834V27.0834Z" fill="#215F90"/>
</g>
</svg>
